!!!!SEGMENT: pl-wn--mus-iii-105-719-2--007_zelenski-wladyslaw--25-preludyi-op-38-23-andante-na-temat-kto-sie-w-opieke.krn
!!!cenid: 18xx:3756
!!!COM: Żeleński, Władysław
!!!COM-rismid: pe41024455
!!!CDT:
!!!CNT:
!!!GTL: 25 preludyi op. 38
!!!OTL: 23. Andante. Na temat „Kto się w opiekę”
!!!PDT: 1881
!!!AGN:
!!!SMS-siglum: PL-Wn
!!!SMS-shelfmark: Mus.III.105.719/2
!!!SMS-shelfwork: 007 G
!!!SMS-variant:
!!!SMS-altvar:
!!!NIFC-rismid:
!!!URL-scan: https://polona.pl/item/25-preludyi-2-3-i-4-glosowych-na-organ-lub-fisharmonike-do-uzytku-organistow-i,ODE1NjEwNDA/2/#info:metadata
!!!ONB-nifc:
!!!OMD: Andante.
!!!AIN: 2 organ
!!!key: E-
**kern	**fing	**kern	**fing	**dynam
*group1	*	*group1	*	*
*part2	*	*part1	*	*part1
*staff2	*	*staff1	*	*
*I"organ lub fisharmonika	*	*I"organ lub fisharmonika	*	*
*I'[Org]	*	*I'[Org]	*	*
*Iorgan	*	*Iorgan	*	*
*ICklav	*	*ICklav	*	*
*clefF4	*	*clefG2	*	*
*k[b-e-a-]	*	*k[b-e-a-]	*	*
*E-:	*	*E-:	*	*
*M2/2	*	*M2/2	*	*
*met(c|)	*	*met(c|)	*	*
=1	=1	=1	=1	=1
*^	*	*	*	*
!LO:TX:b:i:t=con Pedale	!	!	!LO:TX:a:t=1)	!	!
1r	[<1EE-	.	2r	.	.
.	.	.	(>2G/ 2e-/	.	.
=2	=2	=2	=2	=2	=2
*	*	*	*^	*	*
*	*	*	*	*	*^	*
!	!	!	!LO:TX:a:B:t=Na temat ,,Kto się w opiekę."	!	!	!	!
1r	1EE-_<	.	4d/	1A-	4	1	.
.	.	.	4c/	.	3	.	.
.	.	.	4B-/	.	2	.	.
.	.	.	4d/	.	3	.	.
=3	=3	=3	=3	=3	=3	=3	=3
1r	1EE-_<	.	1g	2G\	.	.	<
.	.	.	.	4c\	.	2	.
.	.	.	.	4B-\	.	1	.
=4	=4	=4	=4	=4	=4	=4	=4
1r	1EE-]	.	4f/	2An\	.	1	.
.	.	.	4e-/	.	.	.	.
.	.	.	4d/	2A-X\	.	1	.
.	.	.	4f/	.	.	.	.
*	*	*	*	*	*v	*v	*
=5	=5	=5	=5	=5	=5	=5
2r	2r	.	2b-/)	2r	.	[
[2e-/	(<2E-\	.	(>4b-/	2g\	2 4	p
.	.	.	4b-/	.	.	.
=6	=6	=6	=6	=6	=6	=6
1e-]	2A-\	.	2cc/	2a-\	.	.
.	2E-\	.	2b-/	2g\	.	.
=7	=7	=7	=7	=7	=7	=7
*	*	*^	*	*	*	*
2.c/	4A-\	.	3	4cc/	1e-	.	.
.	4G\	.	4	4b-/	.	.	.
.	[<2F\	.	5	4a-/	.	.	.
4A-/	.	3	.	4cc/	.	.	.
=8	=8	=8	=8	=8	=8	=8	=8
*	*	*	*	*	*	*^	*
2.B-/	2F\]	1	.	4b-/	2d\	.	.	.
.	.	.	.	4a-/	.	.	.	.
.	4E-\)	.	4	4g/)	4e-\	4	2	.
4A-/	4r	2	.	4r	4r	.	.	.
=9	=9	=9	=9	=9	=9	=9	=9	=9
2G/	2E-\	.	3	2b-/	2e-\	5	2	.
2F/	2D\	2	4	4b-/	[2f\	.	1	.
.	.	.	.	4b-/	.	4	.	.
=10	=10	=10	=10	=10	=10	=10	=10	=10
[>1G	2C\	1	3	2cc/	4f\]	5	.	.
.	.	.	.	.	2e-\	.	2	.
.	2GG\	.	5	2b-/	.	4	.	.
.	.	.	.	.	4d\	.	1	.
!!LO:LB:g=original
=11	=11	=11	=11	=11	=11	=11	=11	=11
2G/]	1AA-	.	4◡5	4cc/	2c\	.	.	.
.	.	.	.	4b-/	.	.	.	.
[>2F/	.	2	.	4a-/	4f\	.	2	.
.	.	.	.	4cc/	4e-\	.	1	.
=12	=12	=12	=12	=12	=12	=12	=12	=12
2F/]	2BB-\	.	4◡5	4b-/	2d\	4	1	.
.	.	.	.	4a-/	.	3	.	.
4G/	4E-\	1	3	4g/	4e-\	4	2	.
4r	4r	.	.	4a-/	4r	3	.	.
*	*	*	*	*	*	*v	*v	*
=13	=13	=13	=13	=13	=13	=13	=13
2G/	2E-\	1	3	2b-/	2g\	4◠3	.
2B-/	2G\	3	5	4ee-/	[<2e-\	5	.
.	.	.	.	4dd/	.	5	.
=14	=14	=14	=14	=14	=14	=14	=14
*	*	*	*	*	*	*^	*
4c/	2A-\	2	4◡3	2cc/	4e-\]	4	.	.
4d/	.	1	.	.	4f\	.	.	.
4e-/	[<2E-\	2	5	2b-/	[2g\	3	.	.
4d/	.	1	.	.	.	.	.	.
=15	=15	=15	=15	=15	=15	=15	=15	=15
2.c/	1E-]	2◠1	5◡4	4cc/	2g\]	5	.	.
.	.	.	.	4b-/	.	4	.	.
.	.	.	.	4a-/	[<2f\	3	1	.
4A-/	.	2	.	4cc/	.	5	.	.
=16	=16	=16	=16	=16	=16	=16	=16	=16
2.B-/	2D\	1	5	4b-/	2f\]	4	.	.
.	.	.	.	4a-/	.	3	.	.
.	4E-\	.	2	4g/	4e-\	4	2	.
4r	(<8BB-\L	.	3	4r	4ryy	.	.	.
.	8AA-\J	.	.	.	.	.	.	.
*	*	*	*	*	*	*v	*v	*
=17	=17	=17	=17	=17	=17	=17	=17
!	!	!	!	!	!	!	!LO:HP:i:t=crescendo
2B-/	2GG\)	1	5	2b-/	[<1e-	.	<
[>2G/	4C\	1	3	4ee-/	.	5	.
.	4BB-\	.	4	4dd/	.	5	.
=18	=18	=18	=18	=18	=18	=18	=18
*	*	*	*	*	*	*^	*
4G/]	2AAn\	.	5	2cc/	4e-\]	4	.	.
4F#X/	.	2	.	.	4d\	.	1	.
[>2G/	4GG\	1	5	2b-/	4g\	3◠4	2	.
.	4D-X\	.	3	.	4f\	.	1	.
=19	=19	=19	=19	=19	=19	=19	=19	=19
2G/]	2C\	.	5	4cc/	2en\	5	2	.
.	.	.	.	4b-/	.	4	.	.
2A-/	2F\	2	3	4a-/	4f\	3	1	.
.	.	.	.	4cc/	4e-X\	5	2	.
*	*	*v	*v	*	*	*	*	*
=20	=20	=20	=20	=20	=20	=20	=20
2B-/	2BB-\	.	4b-/	2d\	4	1	.
.	.	.	4a-/	.	3	.	.
2E-/	4C\	.	2g/	4e-\	5	2	.
.	8BB-\L	.	.	8d\L	2	.	.
.	8AA-\J	.	.	8c\J	1	.	.
*	*	*	*	*	*v	*v	*
!!LO:LB:g=original
=21	=21	=21	=21	=21	=21	=21
*	*	*^	*	*	*	*
!	!	!	!	!	!	!	!LO:HP:i:t=dimin.
(>2.G/	4GG\	1	5	2b-/	4B-\	4	>
.	4D-X\	.	3	.	4f\	.	.
.	2C\	.	4	8cc/L	4en\	5	.
.	.	.	.	8b-/J	.	4	.
4G-X/	.	2	.	4an/	[<4e-X\	5	.
=22	=22	=22	=22	=22	=22	=22	=22
2F/	1BB-	1	5	1b-	4e-\]	4◠5	.
.	.	.	.	.	4c\	.	.
[>2A-/	.	.	.	.	4d\	2◠1	.
.	.	.	.	.	8e-\L	2	.
.	.	.	.	.	8f\J	3	.
*	*	*v	*v	*	*	*	*
=23	=23	=23	=23	=23	=23	=23
2A-/]	1E-	.	[>1e-	[<1B-	1 2	pp
4G/	.	1	.	.	.	.
4F/	.	2	.	.	.	.
=24	=24	=24	=24	=24	=24	=24
2G/)	2E-\	1	2e-/]	2B-\]	.	.
!	!	!	!LO:TX:b:i:t=dolce	!	!	!
!	!	!	!LO:TX:a:t=2)	!	!	!
2r	2r	.	2e-/	2r	2	.
=25	=25	=25	=25	=25	=25	=25
*	*	*	*	*	*^	*
!LO:TX:b:i:t=senza Pedale	!	!	!	!	!	!	!
4r	1r	.	2b-/	2r	5	.	.
4D/	.	4	.	.	.	.	.
4E-/	.	3	4b-/	[<2g-X\	4	2	.
8F/L	.	1	4b-/	.	.	.	.
8G-X/J	.	3	.	.	.	.	.
*	*	*	*	*	*v	*v	*
=26	=26	=26	=26	=26	=26	=26
2A-X/	1r	2	2cc-X/	4g-\]	.	<
.	.	.	.	2f\	.	.
[>2G-X/	.	3	2b-/	.	.	.
.	.	.	.	8e-\L	2	.
.	.	.	.	8d\J	1	.
=27	=27	=27	=27	=27	=27	=27
2G-/]	1r	.	4cc-X/	1e-	.	.
.	.	.	4b-/	.	.	.
4F/	.	5	4a-/	.	.	.
8G-X/L	.	4	4cc-/	.	.	[
8A-/J	.	3	.	.	.	.
*clefG2	*	*	*	*	*	*
*v	*v	*	*	*	*	*
=28	=28	=28	=28	=28	=28
*	*	*	*	*^	*
*	*^	*	*	*	*	*
2.B-/	.	.	4b-/	2d\	4◠5	1	>
.	.	.	4a-/	.	4	.	.
.	.	.	4g-X/	4e-\	3	2	.
8c/L	.	.	4r	4ryy	.	.	]
8d/J	.	.	.	.	.	.	.
=29	=29	=29	=29	=29	=29	=29	=29
2e-/	.	.	4r	4ryy	.	.	.
.	.	.	4gg-X/	4b-\	5	2	.
4e-/	.	4	4ee-/	4cc\	4	1	.
4e-/	.	3	4dd-X/	4b-\	3	2	.
=30	=30	=30	=30	=30	=30	=30	=30
2g-X/	.	2	4cc/	1an	4	1	.
.	.	.	2ee-/	.	.	.	.
2f/	.	1	.	.	.	.	.
.	.	.	8dd-X/L	.	.	.	.
.	.	.	8cc/J	.	.	.	.
!!LO:LB:g=original
=31	=31	=31	=31	=31	=31	=31	=31
!	!	!	!	!	!	!	!LO:HP:i:t=crescendo
4g-X/	.	2	2b-/	2.b-\	.	2	<
4f/	.	3	.	.	.	.	.
4e-/	.	4	[>2cc/	.	3	.	.
4g-/	.	2	.	4an\	.	1	.
=32	=32	=32	=32	=32	=32	=32	=32
4f/	.	1	4cc/]	2.a-X\	.	2	.
4e-/	.	2	(>4ff/	.	5	.	.
2d/	.	2	2b-/)	.	.	.	.
.	.	.	.	8g-X\L	.	1	.
.	.	.	.	8f\J	.	1	.
*clefF4	*	*	*	*	*	*	*
=33	=33	=33	=33	=33	=33	=33	=33
*^	*	*	*	*	*	*	*
2e-/	2E-\	5	1	2b-/	2g-X\	.	2	.
2B-/	[<2G-X\	2	3	4ee-/	[<2e-\	.	.	.
.	.	.	.	4dd-X/	.	.	.	.
=34	=34	=34	=34	=34	=34	=34	=34	=34
2A-/	4G-\]	1	.	2cc-X/	4e-\]	3◠4	.	.
.	2F\	.	4	.	(<4d-X\	.	1	.
2G-X/	.	2	.	2b-/	[<2g-X\)	3	.	.
.	4E-\	.	3	.	.	.	.	.
=35	=35	=35	=35	=35	=35	=35	=35	=35
4A-/	1D-X	1	5	4cc-X/	2g-\]	5	.	.
4B-/	.	2	.	4b-/	.	.	.	.
4c-X/	.	1	.	4a-/	[<2f\	.	1	.
4A-/	.	2	.	4cc-/	.	.	.	.
=36	=36	=36	=36	=36	=36	=36	=36	=36
[>2B-/	2Dn\	1	4	4b-/	2f\]	4◠5	1	.
.	.	.	.	4a-/	.	4	.	.
4B-/]	4E-\	.	3	4g-X/	4e-\	3	2	.
4r	4ryy	.	.	4a-/	4f\	4	1	.
*	*	*v	*v	*	*	*	*	*
=37	=37	=37	=37	=37	=37	=37	=37
2E-/	1rBB	.	[>1b-	4g-X\	5	3	.
.	.	.	.	4a-\	.	4	.
4B-/	.	2	.	4g-\	.	3	.
4A-/	.	1	.	4f\	.	1	.
=38	=38	=38	=38	=38	=38	=38	=38
2G-X/	1r	2	4b-/]	2.e-\	.	2	.
.	.	.	4an/	.	5	.	.
2F/	.	3	[>2a-X/	.	4◠5	.	.
.	.	.	.	8d-X\L	1	.	.
.	.	.	.	8c-X\J	2	.	.
=39	=39	=39	=39	=39	=39	=39	=39
4G-X/	1r	.	4a-/]	[<1B-	.	1	.
4F/	.	.	4d-X/	.	2	.	.
4E-/	.	.	2g-X/	.	5	.	.
4G-/	.	.	.	.	.	.	.
=40	=40	=40	=40	=40	=40	=40	=40
4F/	1r	1	2c/	4B-\]	3	1◡2	.
2E-/	.	2	.	4An\	.	1	.
.	.	.	2f/	2A-X\	5	2	.
4D/	.	1	.	.	.	.	.
!!LO:LB:g=original
=41	=41	=41	=41	=41	=41	=41	=41
*	*	*^	*	*	*	*	*
!LO:TX:b:i:t=con Pedale	!	!	!	!	!	!	!	!
2E-/	2GG\	2	5	2e-/	2d-X\	3	2	pp
[2F-X/	2AA-\	.	4◡5	4a-/	[<2c-X\	5	1	.
.	.	.	.	4g-X/	.	4	.	.
=42	=42	=42	=42	=42	=42	=42	=42	=42
2F-/]	2D-X\	.	3	2f-X/	4c-\]	3◠4	.	.
.	.	.	.	.	4B-\	.	2	.
[>2G-X/	4C-X\	1	4	2e-/	[<2c-X\	3	1	.
.	8BB-\L	.	5	.	.	.	.	.
.	8AA-\J	.	4	.	.	.	.	.
*	*	*v	*v	*	*	*	*	*
=43	=43	=43	=43	=43	=43	=43	=43
2.G-/]	1GG-X	.	4f-X/	2c-\]	5	.	.
.	.	.	4e-/	.	4	.	.
.	.	.	4d-X/	[<2B-\	3	2	.
4D-X/	.	2	4f-/	.	5	.	.
=44	=44	=44	=44	=44	=44	=44	=44
*	*	*^	*	*	*	*	*
[>1E-	2GGn\	1	4	4e-/	2.B-\]	4	.	.
.	.	.	.	4d-X/	.	3	.	.
.	2AA-\	.	3	2c-X/	.	4	.	.
.	.	.	.	.	4A-\	.	1	.
*	*	*v	*v	*	*	*	*	*
=45	=45	=45	=45	=45	=45	=45	=45
!	!	!	!	!LO:TX:t=P:rytm:problem	!	!	!
!	!	!	!	!LO:N:vis=2	!	!	!
1E-_>	2EE-\	.	2B-/	[<1G-X\	3	2	.
.	4C-X\	.	4e-/	.	5	.	.
.	4BB-\	.	4d-X/	.	4	.	.
=46	=46	=46	=46	=46	=46	=46	=46
1E-_>	2.AA-\	.	2c-X/	4G-\]	.	.	.
.	.	.	.	4F\	.	1	.
.	.	.	2B-/	[<2B-\	2◠4	.	.
.	4GGn\	.	.	.	.	.	.
*	*	*	*	*	*v	*v	*
=47	=47	=47	=47	=47	=47	=47
4E-/]	4GG-X\	.	1cn	1B-]	5	.
!LO:TX:t=P:problem=klamra po lewej stronie	!	!	!	!	!	!
4F/	4FF\	1	.	.	.	.
4G-X/	4EE-\	2	.	.	.	.
4E-/	4GG-\	1	.	.	.	.
=48	=48	=48	=48	=48	=48	=48
*	*	*^	*	*	*	*
*	*	*	*	*	*	*^	*
[>1F	4FF\	1	5	2c/	1An	.	1◡3	.
.	4E-\	.	2	.	.	.	.	.
.	4D\	.	.	(>4d/	.	3	.	.
.	4C\	.	.	4e-/	.	4	.	.
=49	=49	=49	=49	=49	=49	=49	=49	=49
2F/]	2.D\	.	3	1f)	2A-X\	5	2	.
!	!	!	!	!	!LO:TX:t=P:problem=po lewej stronie klamra łącząca 2e- i 4G	!	!	!
4G/	.	1	.	.	2e-\	.	4	.
4An/	4C\	2◠1	4	.	.	.	.	.
=50	=50	=50	=50	=50	=50	=50	=50	=50
4B-/	4BB-\	2	2	4f/	4d\	.	3	.
!	!LO:TX:t=P:problem=klamra po lewej stronie 4AA- i 4A-	!	!	!	!	!	!	!
4A-/	4AA-\	1	3	4r	4ryy	.	.	.
4G/	4GG\	1	4	2r	2r	.	.	.
4F/	4FF\	1	5	.	.	.	.	.
!!LO:PB:g=original
=51	=51	=51	=51	=51	=51	=51	=51	=51
!	!	!	!	!LO:TX:a:t=3)	!	!	!	!
2E-/	2EE-\	.	3	(>2b-/	2B-\ 2g\	.	.	ff
2D/	2DD\	.	4	4b-/	2B-\ 2f\	.	2	.
.	.	.	.	4b-/	.	4	.	.
=52	=52	=52	=52	=52	=52	=52	=52	=52
2C/	2CC\	.	5	2cc/	[<2e-\ [<2g\	5	3 2	.
[>2E-/	2EE-\	.	4◡5	2b-/	4e-\] 4g\]	4	.	.
.	.	.	.	.	4d\ 4f\	.	2 1	.
*	*	*	*	*	*	*v	*v	*
=53	=53	=53	=53	=53	=53	=53	=53
2E-/]	1AA-	2◠1	3◡5	4cc/	1c 1e-	.	.
.	.	.	.	4b-/	.	.	.
[>2F/	.	1	.	4a-/	.	.	.
.	.	.	.	4cc/	.	.	.
=54	=54	=54	=54	=54	=54	=54	=54
*	*	*	*	*	*	*^	*
2F/]	2BB-\	.	.	4b-/	2d\	.	.	.
.	.	.	.	4a-/	.	.	.	.
4E-/	4EE-\	.	.	4g/	[<2e-\	4	2	.
4r	4ryy	.	.	4a-/	.	3	.	.
=55	=55	=55	=55	=55	=55	=55	=55	=55
[>1E-	2EE-\	.	5	2b-/	4e-\] 4g\	.	3 2	.
.	.	.	.	.	4f\ 4a-\	.	4 1	.
.	2GG\	.	4	4b-/	4e-\ 4g\	.	3 2	.
.	.	.	.	4b-/	4d\ 4f\	4	2 1	.
*	*	*	*	*	*	*v	*v	*
=56	=56	=56	=56	=56	=56	=56	=56
1E-_>	2AA-\	.	3	2cc/	2c\ 2e-\	.	.
.	2GG\	.	4	2b-/	2B-\ 2e-\	4	.
=57	=57	=57	=57	=57	=57	=57	=57
2E-/]	4AA-\	.	3	4cc/	1c 1e-	.	.
.	4GG\	.	4	4b-/	.	.	.
[>2F/	4FF\	.	5	4a-/	.	.	.
.	4AA-\	.	4	4cc/	.	.	.
=58	=58	=58	=58	=58	=58	=58	=58
*	*	*	*	*	*	*^	*
2F/]	2BB-\	.	3	4b-/	2d\	4	.	.
.	.	.	.	4a-/	.	3	.	.
2E-/	4C\	1	2	2g/)	2e-\	4	2	.
.	8BB-\L	.	3	.	.	.	.	.
.	8AA-\J	.	4	.	.	.	.	.
*	*	*	*	*	*	*v	*v	*
=59	=59	=59	=59	=59	=59	=59	=59
2B-/	2GG\	1	5	2b-/	1e-	3	.
2G/	4C\	.	3	4ee-/	.	5	.
.	4BB-\	.	4	4dd/	.	.	.
=60	=60	=60	=60	=60	=60	=60	=60
2A-/	2.AA-\	.	5	2cc/	2.e-\	4◠5	.
2ryy	.	.	.	2b-/	.	4	.
.	8GG\L	.	3	.	4d-X\	.	.
.	8FF\J	.	4	.	.	.	.
=61	=61	=61	=61	=61	=61	=61	=61
2En/	2EEn\	.	5	4a-/ 4cc/	2c\	3 5	1
.	.	.	.	4g/ 4b-/	.	2 4	.
[>2F/	4FF\	.	4	4a-/	[<2f\	3	2
.	4AA-\	.	3	4e-/ 4cc/	.	1 5	.
!!LO:LB:g=original
=62	=62	=62	=62	=62	=62	=62	=62
*	*	*	*	*	*	*^	*
2F/]	2BB-\	.	2	4b-/	2d\ 2f\]	4	.	.
.	.	.	.	4a-/	.	3	.	.
[>2E-/	2EE-\	.	5	4g/	4e-\	4	2	.
.	.	.	.	4a-/	4r	3	.	.
*v	*v	*	*	*	*	*	*	*
=63	=63	=63	=63	=63	=63	=63	=63
*	*	*	*	*^	*	*	*
4EE-/ 4E-/]	.	.	2b-/	2f\	2ryy	4	1	.
4DD/ 4D/	.	4	.	.	.	.	.	.
4CC/ 4C/	.	5	4ee-/	[<2g/	[<2e-\	5	2 1	.
4BB-/	.	2	4dd/	.	.	.	5	.
*	*	*	*	*v	*v	*	*	*
=64	=64	=64	=64	=64	=64	=64	=64
*^	*	*	*	*	*	*	*
4ryy	2AAn\	.	4	2cc/	4e-\] 4g\]	4◠5	.	.
4D/	.	2	.	.	[<4d\ 4f#X\	.	2 1	.
4G/	2GG\	1	5	[<2g/ 2b-/	4d\]	3 4	.	.
4F/	.	1	.	.	4d-X\	.	2	.
=65	=65	=65	=65	=65	=65	=65	=65	=65
2En/	2C\	2	3	4cc/	2c\ 2g\]	5	1	.
.	.	.	.	4b-/	.	4	.	.
2F/	4FF\	1	5	4c/ 4a-/	[<2f\	3	2	.
.	4AA-\	.	4	4e-/ 4cc/	.	5	.	.
=66	=66	=66	=66	=66	=66	=66	=66	=66
2F/	2BB-\	.	.	4b-/	2d\ 2f\]	4	.	.
.	.	.	.	4a-/	.	3	.	.
2E-/	4C\	2	4	2g/	4e-\	4	.	.
.	8BB-\L	.	3	.	8d\L	1	.	.
.	8AA-\J	.	4	.	8c\J	2	.	.
=67	=67	=67	=67	=67	=67	=67	=67	=67
2.G/	4GG\	1	5	2b-/	4B-\	5◠4	.	.
.	4D-X\	.	3	.	4f\	.	2	.
.	2C\	.	4	8cc/L	4en\	5	1	.
.	.	.	.	8b-/J	.	4	.	.
4G-X/	.	2	.	4an/	[<4e-X\	5	2	.
=68	=68	=68	=68	=68	=68	=68	=68	=68
*	*	*	*	*	*^	*	*	*
2.F/	1BB-	.	5◡3	[>1b-	4e-\]	2ryy	4◠5	.	.
.	.	.	.	.	4c\	.	.	1	.
.	.	.	.	.	4d\	[<2a-X\	.	2	.
8E-/L	.	2	.	.	8e-\L	.	.	1	.
8D/J	.	1	.	.	8f\J	.	.	2	.
*v	*v	*	*	*	*	*	*	*	*
*	*	*	*	*v	*v	*	*	*
=69	=69	=69	=69	=69	=69	=69	=69
[<1EE- [>1E-	1	5	[<1e- [>1b-]	2a-\]	.	1	.
.	.	.	.	4g\	.	3	.
.	.	.	.	4f\	.	2	.
*	*v	*v	*	*	*	*	*
*	*	*	*	*v	*v	*
=70	=70	=70	=70	=70	=70
4EE-/] 4E-/]	.	2b-/]	2e-\] 2g\	.	.
4r	.	.	.	.	.
!	!	!LO:TX:a:t=4)	!	!	!
2r	.	(>2b-/	2r	1	pp
*clefG2	*	*	*	*	*
=71	=71	=71	=71	=71	=71
*	*	*	*	*^	*
2r	.	2bb-/)	2ryy	5	.	.
(>4ee-\	2	(>2bb-/	4gg\	4	2	.
4dd\)	1	.	4ff\	.	1	.
!!LO:LB:g=original
=72	=72	=72	=72	=72	=72	=72
2cc\	3	2ccc/	2ee-\	5	2	.
4ee-\	2	2bb-/	[<2gg\	4	1	.
4dd\	1	.	.	.	.	.
=73	=73	=73	=73	=73	=73	=73
4cc\	.	2aa-/	2gg\]	3	2	.
4b-\	.	.	.	.	.	.
4a-/	4	2ccc/	4ff\	.	1	.
4cc\	1	.	4ee-\	.	2	.
=74	=74	=74	=74	=74	=74	=74
4b-\	.	2ff/	2dd\	3	1	.
4a-/	.	.	.	.	.	.
4g/	1	4ee-\)	2ryy	.	.	.
4f/	.	4r	.	.	.	.
=75	=75	=75	=75	=75	=75	=75
*	*^	*	*	*	*	*
!	!	!	!LO:TX:a:t=5)	!	!	!	!
4e-/	.	.	(>2b-/	[<1g	3	12	.
4d/	.	1	.	.	.	.	.
4c/	.	.	4ee-/	.	5	.	.
4B-/	.	.	4dd/	.	5	.	.
*clefF4	*	*	*	*	*	*	*
=76	=76	=76	=76	=76	=76	=76	=76
2A-\	.	4	2cc/	4g\]	4	.	.
.	.	.	.	2f\	.	1	.
2G\	.	1	2b-/	.	3	.	.
.	.	.	.	[<4e-\	.	2	.
=77	=77	=77	=77	=77	=77	=77	=77
2G-X\	.	2	4cc/	4e-\]	5	.	.
.	.	.	4b-/	4en\	4	2	.
4F\	.	1	4a-/	4f\	3	1	.
4E-\	.	3	4cc/	4g-X\	5	2	.
=78	=78	=78	=78	=78	=78	=78	=78
2D\	.	4	4b-/	2f\	4	1	.
.	.	.	4a-/	.	3	.	.
4E-\	.	3	4g/)	4e-\	4	2	.
4G\	.	1	4r	4ryy	.	.	.
*	*v	*v	*	*	*	*	*
*	*	*	*	*v	*v	*
=79	=79	=79	=79	=79	=79
!	!	!	!	!	!LO:HP:b=2
2B-\	.	2r	2ryy	.	<
4c\	.	2e-/	[<2e-\	3	.
8B-\L	.	.	.	.	.
8An\J	.	.	.	.	.
=80	=80	=80	=80	=80	=80
*^	*	*	*	*	*
*	*	*	*	*	*^	*
*	*	*^	*	*	*	*	*
2B-/	2r	2◠1	.	2g/	2e-\]	5	.	.
[>2A-X/	2BB-\	2	5	2f/	2d\	4	1	[
=81	=81	=81	=81	=81	=81	=81	=81	=81
!	!	!	!	!	!	!	!	!LO:HP:b=2
2A-/]	[<1E-	.	4	[>1e-	2.d-X\	.	.	>
2F/	.	3	.	.	.	.	.	.
.	.	.	.	.	4c\	.	1	.
=82	=82	=82	=82	=82	=82	=82	=82	=82
4G/	2E-\]	.	.	2.e-/]	4B-\	.	3	.
4r	.	.	.	.	4A-\	.	2	]
2r	2D-X\	.	3	.	4G\	.	1	.
.	.	.	.	4r	4B-\	.	2	.
!!LO:LB:g=original
=83	=83	=83	=83	=83	=83	=83	=83	=83
[>1C	2EE-\	.	5	2.g-X/	[<1An	5	1	.
.	2FF\	.	4	.	.	.	.	.
.	.	.	.	4f/	.	4	.	.
*	*	*	*	*	*	*v	*v	*
=84	=84	=84	=84	=84	=84	=84	=84
4C/]	1GG-X	.	3	4e-/	4A\]	3	.
4r	.	.	.	4d-X/	4r	2	.
2r	.	.	.	4c/	2r	1	.
.	.	.	.	4e-/	.	2	.
=85	=85	=85	=85	=85	=85	=85	=85
1E-	2GGn\	.	5	2.b-/	[<1d-X	5	<
.	2AA-\	.	4◡5	.	.	.	.
.	.	.	.	4a-/	.	4	.
=86	=86	=86	=86	=86	=86	=86	=86
4En/	1BB-	1	4	4g/	1d-]	5	.
4F/	.	2	.	4f/	.	3	.
4G/	.	1	.	4en/	.	2	.
4E/	.	2	.	4g/	.	3	[
=87	=87	=87	=87	=87	=87	=87	=87
*	*	*	*	*	*	*^	*
2F/	2AA-\	1	5	2cc/	1c	5	.	>
2G-X/	2AAn\	2	5	[>2e-X/	.	2◠5	.	.
*v	*v	*	*	*	*	*	*	*
=88	=88	=88	=88	=88	=88	=88	=88
1BB- 1F	1	4	2e-/]	2.B-\	.	.	.
.	.	.	2d/	.	4	.	.
.	.	.	.	4A-\	.	1	]
*	*v	*v	*	*	*	*	*
=89	=89	=89	=89	=89	=89	=89
1C 1E-	34 2◠1	[>1e-	1G	3	1	.
=90	=90	=90	=90	=90	=90	=90
*^	*	*	*	*	*	*
*	*	*^	*	*	*	*	*
[>1E-	4BB-\	.	3	1e-_>	[<1d-X	.	2	.
.	4AA-\	.	4	.	.	.	.	.
.	4GG\	.	5	.	.	.	.	.
.	4BB-\	.	2	.	.	.	.	.
=91	=91	=91	=91	=91	=91	=91	=91	=91
1E-]	[<1AA-	.	3	2e-/]	2d-\]	.	.	.
.	.	.	.	2a-/	[<2c\	.	1◡2	<
=92	=92	=92	=92	=92	=92	=92	=92	=92
[>1E-	4AA-\]	.	.	2.e-/	2c\]	.	.	.
.	4GG\	.	4	.	.	.	.	.
.	4FF\	.	5	.	2c-X\	.	1	.
.	4AA-\	.	2	4f/	.	4	.	.
*	*	*v	*v	*	*	*	*	*
*v	*v	*	*	*	*	*	*
*	*	*v	*v	*	*	*
=93	=93	=93	=93	=93	=93
1EE-;< 1E-]	.	1B-;> 1g	5	2	[ ppp
*	*	*	*v	*v	*
==	==	==	==	==
*-	*-	*-	*-	*-
!!!system-decoration: [(g1)]
!!!RDF**kern: > = above
!!!RDF**kern: < = below
!!!ENC: Filip Voros
!!!END: 2022-03-12
!!!EED: Jędrzej Mróz
!!!EST: 2022-03-31
